;FLAVOR:Marlin
;TIME:14226
;Filament used: 6.42836m
;Layer height: 0.12
;MINX:66.968
;MINY:48.526
;MINZ:0.2
;MAXX:163.071
;MAXY:181.482
;MAXZ:4.04
;Generated with Cura_SteamEngine 4.12.1
M140 S60
M105
M190 S60
M104 S205
M105
M109 S205
M82 ;absolute extrusion mode
G28 ;Home
G92 E0 ;Reset Extruder
G1 Z2.0 F3000 ;Move bed down
G1 X10.1 Y20 Z0.28 F5000.0 ;Move to start position
G1 X10.1 Y200.0 Z0.28 F1500.0 E15 ;Draw the first line
G1 X10.4 Y200.0 Z0.28 F5000.0 ;Move to side a little
G1 X10.4 Y20 Z0.28 F1500.0 E30 ;Draw the second line
G92 E0 ;Reset Extruder
G1 Z2.0 F3000 ;Move Bed up
G92 E0
G92 E0
G1 F3000 E-8
;LAYER_COUNT:33
;LAYER:0
M107
G0 F6000 X69.863 Y52.991 Z0.2
;TYPE:SKIRT
G1 F3000 E0
G1 F1200 X70.487 Y52.291 E0.02807
G1 X71.168 Y51.646 E0.05615
G1 X71.901 Y51.061 E0.08422
G1 X72.842 Y50.445 E0.11789
G1 X73.209 Y50.238 E0.1305
G1 X73.489 Y50.086 E0.14004
G1 X73.784 Y49.931 E0.15001
G1 X74.252 Y49.695 E0.1657
G1 X75.107 Y49.309 E0.19378
G1 X75.991 Y48.997 E0.22184
G1 X76.899 Y48.761 E0.24993
G1 X77.824 Y48.604 E0.27801
G1 X78.758 Y48.526 E0.30607
G1 X79.696 Y48.528 E0.33415
G1 X80.63 Y48.61 E0.36221
G1 X81.196 Y48.699 E0.37936
G1 X82.305 Y48.903 E0.41312
G1 X84.892 Y49.341 E0.49166
G1 X87.394 Y49.693 E0.56729
G1 X89.892 Y49.972 E0.64253
G1 X92.417 Y50.182 E0.71838
G1 X94.857 Y50.316 E0.79153
G1 X98.648 Y50.393 E0.90503
G1 X132.931 Y50.393 E1.93126
G1 X135.539 Y50.356 E2.00934
G1 X138.061 Y50.249 E2.0849
G1 X140.556 Y50.072 E2.15977
G1 X143.054 Y49.824 E2.23492
G1 X145.56 Y49.504 E2.31054
G1 X148.466 Y49.042 E2.39862
G1 X148.627 Y49.013 E2.40352
G1 X148.883 Y48.971 E2.41128
G1 X149.827 Y48.826 E2.43987
G1 X150.159 Y48.773 E2.44994
G1 X151.09 Y48.664 E2.478
G1 X152.027 Y48.635 E2.50606
G1 X152.964 Y48.685 E2.53415
G1 X153.893 Y48.816 E2.56223
G1 X154.807 Y49.025 E2.5903
G1 X155.7 Y49.311 E2.61836
G1 X156.566 Y49.672 E2.64645
G1 X157.397 Y50.105 E2.6745
G1 X158.189 Y50.608 E2.70258
G1 X158.935 Y51.176 E2.73065
G1 X159.63 Y51.806 E2.75873
G1 X160.269 Y52.493 E2.78682
G1 X160.847 Y53.232 E2.8149
G1 X161.36 Y54.017 E2.84297
G1 X161.804 Y54.843 E2.87104
G1 X162.02 Y55.318 E2.88666
G1 X162.113 Y55.536 E2.89376
G1 X162.245 Y55.86 E2.90423
G1 X162.326 Y56.068 E2.91091
G1 X162.629 Y56.956 E2.939
G1 X162.855 Y57.866 E2.96706
G1 X163.003 Y58.792 E2.99514
G1 X163.071 Y59.728 E3.02323
G1 X163.059 Y60.666 E3.05131
G1 X162.968 Y61.599 E3.07937
G1 X162.872 Y62.17 E3.0967
G1 X162.784 Y62.62 E3.11043
G1 X162.328 Y65.134 E3.18691
G1 X161.945 Y67.645 E3.26294
G1 X161.636 Y70.134 E3.33802
G1 X161.4 Y72.608 E3.41241
G1 X161.231 Y75.152 E3.48873
G1 X161.133 Y77.688 E3.5647
G1 X161.107 Y79.866 E3.62991
G1 X161.107 Y149.525 E5.71509
G1 X161.144 Y152.133 E5.79316
G1 X161.25 Y154.636 E5.86815
G1 X161.428 Y157.146 E5.94348
G1 X161.676 Y159.649 E6.01877
G1 X161.995 Y162.142 E6.094
G1 X162.388 Y164.644 E6.16982
G1 X162.818 Y166.937 E6.23965
G1 X162.906 Y167.443 E6.25503
G1 X163.027 Y168.373 E6.2831
G1 X163.069 Y169.31 E6.31118
G1 X163.031 Y170.247 E6.33925
G1 X162.912 Y171.178 E6.36734
G1 X162.715 Y172.095 E6.39542
G1 X162.321 Y173.315 E6.4338
G1 X162.111 Y173.823 E6.45025
G1 X161.97 Y174.141 E6.46066
G1 X161.846 Y174.41 E6.46953
G1 X161.647 Y174.828 E6.48339
G1 X161.208 Y175.657 E6.51147
G1 X160.7 Y176.446 E6.53956
G1 X160.127 Y177.188 E6.56762
G1 X159.493 Y177.879 E6.59569
G1 X158.802 Y178.513 E6.62377
G1 X158.059 Y179.086 E6.65185
G1 X157.271 Y179.594 E6.67992
G1 X156.442 Y180.033 E6.708
G1 X155.499 Y180.429 E6.73861
G1 X155.196 Y180.54 E6.74827
G1 X154.783 Y180.682 E6.76135
G1 X154.255 Y180.852 E6.77795
G1 X153.351 Y181.101 E6.80602
G1 X152.429 Y181.272 E6.83409
G1 X151.496 Y181.364 E6.86215
G1 X150.558 Y181.376 E6.89023
G1 X149.622 Y181.308 E6.91832
G1 X149.059 Y181.228 E6.93535
G1 X148.16 Y181.076 E6.96264
G1 X147.042 Y180.869 E6.99667
G1 X144.555 Y180.483 E7.07201
G1 X142.022 Y180.162 E7.14844
G1 X139.552 Y179.92 E7.22273
G1 X137.054 Y179.745 E7.29769
G1 X134.51 Y179.641 E7.37391
G1 X132.034 Y179.607 E7.44803
G1 X97.572 Y179.607 E8.47962
G1 X94.964 Y179.644 E8.5577
G1 X92.442 Y179.751 E8.63326
G1 X89.947 Y179.928 E8.70813
G1 X87.449 Y180.176 E8.78328
G1 X84.96 Y180.494 E8.85839
G1 X82.428 Y180.892 E8.93511
G1 X80.81 Y181.184 E8.98433
G1 X80.238 Y181.292 E9.00175
G1 X79.31 Y181.427 E9.02982
G1 X78.374 Y181.482 E9.05789
G1 X77.436 Y181.458 E9.08598
G1 X76.504 Y181.354 E9.11405
G1 X75.584 Y181.171 E9.14213
G1 X74.683 Y180.91 E9.17021
G1 X73.808 Y180.573 E9.19827
G1 X72.964 Y180.164 E9.22635
G1 X72.159 Y179.683 E9.25442
G1 X71.397 Y179.136 E9.2825
G1 X70.685 Y178.526 E9.31056
G1 X70.027 Y177.857 E9.33865
G1 X69.429 Y177.135 E9.36672
G1 X68.894 Y176.365 E9.39478
G1 X68.427 Y175.552 E9.42285
G1 X68.031 Y174.701 E9.45095
G1 X67.815 Y174.168 E9.46816
G1 X67.74 Y173.971 E9.47447
G1 X67.444 Y173.081 E9.50255
G1 X67.225 Y172.169 E9.53062
G1 X67.084 Y171.242 E9.55869
G1 X67.023 Y170.306 E9.58677
G1 X67.042 Y169.368 E9.61485
G1 X67.12 Y168.576 E9.63867
G1 X67.312 Y167.163 E9.68136
G1 X67.356 Y166.867 E9.69032
G1 X67.465 Y166.201 E9.71052
G1 X67.711 Y164.822 E9.75245
G1 X68.092 Y162.282 E9.82933
G1 X68.392 Y159.802 E9.90411
G1 X68.622 Y157.306 E9.97914
G1 X68.783 Y154.777 E10.055
G1 X68.873 Y152.246 E10.13081
G1 X68.893 Y150.375 E10.18682
G1 X68.893 Y80.563 E12.27658
G1 X68.856 Y77.955 E12.35466
G1 X68.749 Y75.433 E12.43022
G1 X68.572 Y72.938 E12.50509
G1 X68.324 Y70.439 E12.58027
G1 X68.006 Y67.95 E12.65538
G1 X67.612 Y65.442 E12.73137
G1 X67.408 Y64.37 E12.76404
G1 X67.388 Y64.235 E12.76812
G1 X67.143 Y62.875 E12.80949
G1 X67.016 Y61.946 E12.83756
G1 X66.968 Y61.009 E12.86564
G1 X67.001 Y60.072 E12.89371
G1 X67.113 Y59.141 E12.92178
G1 X67.305 Y58.223 E12.94985
G1 X67.573 Y57.324 E12.97793
G1 X67.789 Y56.752 E12.99624
G1 X68.041 Y56.137 E13.01613
G1 X68.215 Y55.735 E13.02924
G1 X68.38 Y55.374 E13.04112
G1 X68.806 Y54.539 E13.06918
G1 X69.302 Y53.742 E13.09728
G1 X69.863 Y52.991 E13.12534
G0 F6000 X70.205 Y53.205
G1 F1200 X70.821 Y52.521 E13.1529
G1 X71.494 Y51.892 E13.18047
G1 X72.219 Y51.325 E13.20802
G1 X73.044 Y50.791 E13.23744
G1 X73.4 Y50.589 E13.24969
G1 X73.68 Y50.437 E13.25923
G1 X73.964 Y50.288 E13.26883
G1 X74.432 Y50.052 E13.28452
G1 X75.271 Y49.674 E13.31207
G1 X76.14 Y49.37 E13.33963
G1 X77.032 Y49.142 E13.36719
G1 X77.941 Y48.993 E13.39476
G1 X78.859 Y48.923 E13.42232
G1 X79.78 Y48.933 E13.44989
G1 X81.124 Y49.092 E13.4904
G1 X82.3 Y49.308 E13.52619
G1 X84.812 Y49.734 E13.60246
G1 X87.361 Y50.092 E13.67951
G1 X89.851 Y50.37 E13.75451
G1 X92.363 Y50.58 E13.82997
G1 X94.856 Y50.717 E13.90471
G1 X98.64 Y50.793 E14.018
G1 X132.937 Y50.793 E15.04465
G1 X135.562 Y50.756 E15.12323
G1 X138.07 Y50.649 E15.19838
G1 X140.587 Y50.471 E15.27391
G1 X143.111 Y50.221 E15.34983
G1 X145.609 Y49.901 E15.42522
G1 X148.542 Y49.434 E15.51412
G1 X148.944 Y49.366 E15.52633
G1 X149.916 Y49.217 E15.55576
G1 X150.222 Y49.168 E15.56504
G1 X151.136 Y49.062 E15.59258
G1 X152.057 Y49.035 E15.62016
G1 X152.976 Y49.089 E15.64772
G1 X153.887 Y49.221 E15.67528
G1 X154.783 Y49.433 E15.70284
G1 X155.657 Y49.721 E15.73038
G1 X156.503 Y50.085 E15.75795
G1 X157.314 Y50.52 E15.7855
G1 X158.085 Y51.024 E15.81307
G1 X158.809 Y51.593 E15.84064
G1 X159.48 Y52.223 E15.86819
G1 X160.095 Y52.908 E15.89575
G1 X160.648 Y53.644 E15.9233
G1 X161.134 Y54.426 E15.95086
G1 X161.652 Y55.475 E15.98588
G1 X161.745 Y55.693 E15.99298
G1 X161.872 Y56.005 E16.00306
G1 X161.953 Y56.213 E16.00974
G1 X162.25 Y57.085 E16.03732
G1 X162.47 Y57.979 E16.06488
G1 X162.611 Y58.889 E16.09244
G1 X162.673 Y59.807 E16.11999
G1 X162.655 Y60.728 E16.14756
G1 X162.479 Y62.094 E16.18879
G1 X162.406 Y62.465 E16.20011
G1 X161.933 Y65.074 E16.27948
G1 X161.546 Y67.607 E16.35618
G1 X161.239 Y70.083 E16.43087
G1 X161.002 Y72.577 E16.50586
G1 X160.83 Y75.148 E16.58299
G1 X160.733 Y77.667 E16.65845
G1 X160.707 Y79.861 E16.72413
G1 X160.707 Y149.531 E18.80964
G1 X160.744 Y152.156 E18.88823
G1 X160.851 Y154.664 E18.96337
G1 X161.029 Y157.183 E19.03896
G1 X161.278 Y159.699 E19.11464
G1 X161.597 Y162.188 E19.18976
G1 X161.994 Y164.714 E19.2663
G1 X162.424 Y167.006 E19.33611
G1 X162.512 Y167.512 E19.35148
G1 X162.63 Y168.425 E19.37904
G1 X162.669 Y169.345 E19.4066
G1 X162.628 Y170.264 E19.43414
G1 X162.506 Y171.177 E19.46171
G1 X162.307 Y172.076 E19.48927
G1 X161.948 Y173.17 E19.52374
G1 X161.745 Y173.661 E19.53964
G1 X161.604 Y173.979 E19.55006
G1 X161.485 Y174.238 E19.55859
G1 X161.286 Y174.656 E19.57245
G1 X160.854 Y175.47 E19.60003
G1 X160.354 Y176.242 E19.62756
G1 X159.788 Y176.969 E19.65514
G1 X159.162 Y177.644 E19.6827
G1 X158.479 Y178.261 E19.71025
G1 X157.745 Y178.817 E19.73782
G1 X156.966 Y179.308 E19.76538
G1 X156.148 Y179.729 E19.79292
G1 X155.361 Y180.053 E19.8184
G1 X155.058 Y180.164 E19.82806
G1 X154.661 Y180.301 E19.84063
G1 X154.133 Y180.471 E19.85723
G1 X153.245 Y180.715 E19.8848
G1 X152.339 Y180.881 E19.91237
G1 X151.423 Y180.967 E19.93991
G1 X150.502 Y180.974 E19.96748
G1 X149.584 Y180.901 E19.99505
G1 X149.125 Y180.834 E20.00893
G1 X148.4 Y180.712 E20.03094
G1 X147.106 Y180.474 E20.07032
G1 X144.635 Y180.09 E20.14518
G1 X142.075 Y179.765 E20.22243
G1 X139.583 Y179.521 E20.29738
G1 X137.065 Y179.345 E20.37294
G1 X134.531 Y179.241 E20.44885
G1 X132.039 Y179.207 E20.52346
G1 X97.566 Y179.207 E21.55538
G1 X94.941 Y179.244 E21.63396
G1 X92.433 Y179.351 E21.7091
G1 X89.916 Y179.529 E21.78464
G1 X87.392 Y179.779 E21.86056
G1 X84.884 Y180.1 E21.93625
G1 X82.383 Y180.493 E22.01203
G1 X80.765 Y180.785 E22.06125
G1 X80.163 Y180.899 E22.07959
G1 X79.252 Y181.031 E22.10714
G1 X78.333 Y181.083 E22.13469
G1 X77.413 Y181.055 E22.16225
G1 X76.499 Y180.948 E22.18979
G1 X75.597 Y180.762 E22.21736
G1 X74.715 Y180.498 E22.24492
G1 X73.859 Y180.159 E22.27248
G1 X73.036 Y179.747 E22.30003
G1 X72.252 Y179.264 E22.3276
G1 X71.512 Y178.716 E22.35516
G1 X70.823 Y178.105 E22.38273
G1 X70.189 Y177.437 E22.41029
G1 X69.616 Y176.717 E22.43784
G1 X69.108 Y175.95 E22.46538
G1 X68.668 Y175.141 E22.49294
G1 X68.444 Y174.628 E22.5097
G1 X68.345 Y174.413 E22.51679
G1 X68.189 Y174.025 E22.5293
G1 X68.114 Y173.828 E22.53561
G1 X67.824 Y172.955 E22.56315
G1 X67.611 Y172.059 E22.59072
G1 X67.476 Y171.148 E22.61829
G1 X67.421 Y170.229 E22.64585
G1 X67.446 Y169.309 E22.6734
G1 X67.517 Y168.63 E22.69383
G1 X67.709 Y167.217 E22.73652
G1 X67.751 Y166.932 E22.74514
G1 X67.86 Y166.266 E22.76534
G1 X68.108 Y164.874 E22.80767
G1 X68.485 Y162.358 E22.88382
G1 X68.789 Y159.851 E22.95942
G1 X69.022 Y157.321 E23.03547
G1 X69.182 Y154.814 E23.11067
G1 X69.272 Y152.264 E23.18705
G1 X69.293 Y150.375 E23.2436
G1 X69.293 Y80.557 E25.33354
G1 X69.256 Y77.932 E25.41212
G1 X69.149 Y75.424 E25.48726
G1 X68.971 Y72.903 E25.56292
G1 X68.721 Y70.385 E25.63866
G1 X68.4 Y67.874 E25.71444
G1 X68.016 Y65.432 E25.78843
G1 X67.8 Y64.296 E25.82305
G1 X67.779 Y64.154 E25.82735
G1 X67.536 Y62.804 E25.86841
G1 X67.412 Y61.892 E25.89596
G1 X67.368 Y60.972 E25.92353
G1 X67.404 Y60.052 E25.95109
G1 X67.519 Y59.139 E25.97863
G1 X67.713 Y58.239 E26.00619
G1 X67.985 Y57.359 E26.03377
G1 X68.159 Y56.904 E26.04835
G1 X68.411 Y56.289 E26.06824
G1 X68.579 Y55.902 E26.08087
G1 X68.744 Y55.541 E26.09275
G1 X69.163 Y54.721 E26.12032
G1 X69.651 Y53.94 E26.14788
G1 X70.205 Y53.205 E26.17544
G0 F6000 X70.547 Y53.42
G1 F1200 X71.155 Y52.752 E26.20247
G1 X71.82 Y52.141 E26.22951
G1 X72.536 Y51.591 E26.25653
G1 X73.246 Y51.136 E26.28178
G1 X73.591 Y50.941 E26.29364
G1 X73.871 Y50.789 E26.30318
G1 X74.144 Y50.645 E26.31242
G1 X74.612 Y50.409 E26.3281
G1 X75.436 Y50.039 E26.35514
G1 X76.289 Y49.743 E26.38217
G1 X77.165 Y49.523 E26.40921
G1 X78.057 Y49.382 E26.43624
G1 X78.958 Y49.32 E26.46327
G1 X79.861 Y49.338 E26.49031
G1 X81.051 Y49.486 E26.52621
G1 X82.158 Y49.69 E26.5599
G1 X84.761 Y50.13 E26.63893
G1 X87.297 Y50.487 E26.71559
G1 X89.809 Y50.768 E26.79125
G1 X92.341 Y50.979 E26.86731
G1 X94.855 Y51.117 E26.94267
G1 X98.632 Y51.193 E27.05576
G1 X132.943 Y51.193 E28.08283
G1 X135.549 Y51.156 E28.16084
G1 X138.117 Y51.047 E28.23778
G1 X140.619 Y50.87 E28.31287
G1 X143.131 Y50.621 E28.38843
G1 X145.689 Y50.293 E28.46563
G1 X148.618 Y49.827 E28.55441
G1 X149.004 Y49.762 E28.56612
G1 X149.921 Y49.621 E28.5939
G1 X150.285 Y49.563 E28.60493
G1 X151.182 Y49.459 E28.63196
G1 X152.085 Y49.436 E28.659
G1 X152.987 Y49.492 E28.68605
G1 X153.879 Y49.628 E28.71306
G1 X154.757 Y49.842 E28.74011
G1 X155.612 Y50.133 E28.76715
G1 X156.438 Y50.498 E28.79418
G1 X157.228 Y50.935 E28.82121
G1 X157.977 Y51.44 E28.84825
G1 X158.678 Y52.01 E28.87529
G1 X159.325 Y52.639 E28.9023
G1 X159.915 Y53.323 E28.92934
G1 X160.442 Y54.056 E28.95637
G1 X160.902 Y54.834 E28.98342
G1 X161.284 Y55.632 E29.00991
G1 X161.377 Y55.85 E29.017
G1 X161.5 Y56.151 E29.02673
G1 X161.581 Y56.359 E29.03342
G1 X161.871 Y57.214 E29.06044
G1 X162.084 Y58.091 E29.08746
G1 X162.219 Y58.984 E29.11449
G1 X162.275 Y59.886 E29.14154
G1 X162.25 Y60.789 E29.16858
G1 X162.087 Y62.017 E29.20567
G1 X161.992 Y62.503 E29.22049
G1 X161.537 Y65.013 E29.29685
G1 X161.152 Y67.533 E29.37316
G1 X160.843 Y70.028 E29.44841
G1 X160.599 Y72.583 E29.52524
G1 X160.432 Y75.104 E29.60087
G1 X160.333 Y77.648 E29.67708
G1 X160.307 Y79.817 E29.74202
G1 X160.307 Y149.537 E31.82902
G1 X160.344 Y152.143 E31.90704
G1 X160.453 Y154.708 E31.98389
G1 X160.631 Y157.215 E32.05912
G1 X160.882 Y159.756 E32.13556
G1 X161.203 Y162.264 E32.21124
G1 X161.595 Y164.755 E32.28673
G1 X162.03 Y167.074 E32.35735
G1 X162.118 Y167.58 E32.37273
G1 X162.233 Y168.476 E32.39977
G1 X162.269 Y169.378 E32.42679
G1 X162.224 Y170.28 E32.45383
G1 X162.1 Y171.175 E32.48087
G1 X161.898 Y172.055 E32.5079
G1 X161.575 Y173.025 E32.5385
G1 X161.38 Y173.498 E32.55382
G1 X161.239 Y173.816 E32.56423
G1 X161.124 Y174.066 E32.57247
G1 X160.925 Y174.484 E32.58633
G1 X160.501 Y175.282 E32.61338
G1 X160.008 Y176.039 E32.64042
G1 X159.45 Y176.749 E32.66745
G1 X158.832 Y177.407 E32.69447
G1 X158.157 Y178.008 E32.72152
G1 X157.433 Y178.547 E32.74854
G1 X156.663 Y179.019 E32.77558
G1 X155.855 Y179.422 E32.80261
G1 X155.224 Y179.678 E32.82299
G1 X154.921 Y179.789 E32.83265
G1 X154.538 Y179.92 E32.84477
G1 X154.01 Y180.09 E32.86137
G1 X153.139 Y180.329 E32.88841
G1 X152.25 Y180.489 E32.91545
G1 X151.351 Y180.57 E32.94247
G1 X150.448 Y180.572 E32.9695
G1 X149.191 Y180.44 E33.00733
G1 X148.466 Y180.318 E33.02934
G1 X147.168 Y180.079 E33.06885
G1 X144.675 Y179.692 E33.14437
G1 X142.127 Y179.369 E33.22125
G1 X139.614 Y179.122 E33.29684
G1 X137.074 Y178.945 E33.37305
G1 X134.554 Y178.841 E33.44855
G1 X132.045 Y178.807 E33.52366
G1 X97.56 Y178.807 E34.55594
G1 X94.954 Y178.844 E34.63396
G1 X92.386 Y178.953 E34.7109
G1 X89.884 Y179.13 E34.78598
G1 X87.372 Y179.379 E34.86154
G1 X84.809 Y179.707 E34.93889
G1 X82.294 Y180.103 E35.0151
G1 X80.717 Y180.387 E35.06307
G1 X80.089 Y180.506 E35.0822
G1 X79.195 Y180.634 E35.10923
G1 X78.293 Y180.683 E35.13627
G1 X77.391 Y180.653 E35.16329
G1 X76.494 Y180.542 E35.19034
G1 X75.611 Y180.353 E35.21738
G1 X74.749 Y180.086 E35.24439
G1 X73.913 Y179.744 E35.27143
G1 X73.11 Y179.329 E35.29848
G1 X72.348 Y178.845 E35.32551
G1 X71.631 Y178.296 E35.35254
G1 X70.966 Y177.685 E35.37957
G1 X70.357 Y177.018 E35.40661
G1 X69.81 Y176.299 E35.43365
G1 X69.329 Y175.535 E35.46067
G1 X68.917 Y174.732 E35.48769
G1 X68.811 Y174.472 E35.4961
G1 X68.713 Y174.256 E35.5032
G1 X68.562 Y173.883 E35.51524
G1 X68.487 Y173.686 E35.52155
G1 X68.204 Y172.829 E35.54857
G1 X67.997 Y171.95 E35.5756
G1 X67.869 Y171.056 E35.60263
G1 X67.82 Y170.154 E35.62967
G1 X67.852 Y169.251 E35.65672
G1 X67.913 Y168.684 E35.67379
G1 X68.105 Y167.271 E35.71648
G1 X68.146 Y166.997 E35.72477
G1 X68.28 Y166.182 E35.74949
G1 X68.51 Y164.898 E35.78854
G1 X68.882 Y162.41 E35.86385
G1 X69.186 Y159.894 E35.93971
G1 X69.421 Y157.35 E36.01618
G1 X69.58 Y154.854 E36.09105
G1 X69.673 Y152.241 E36.16932
G1 X69.693 Y150.375 E36.22518
G1 X69.693 Y80.551 E38.3153
G1 X69.656 Y77.945 E38.39332
G1 X69.547 Y75.377 E38.47026
G1 X69.37 Y72.875 E38.54534
G1 X69.121 Y70.362 E38.62093
G1 X68.793 Y67.799 E38.69828
G1 X68.409 Y65.356 E38.7723
G1 X68.193 Y64.221 E38.80689
G1 X68.172 Y64.074 E38.81133
G1 X67.93 Y62.733 E38.85212
