;FLAVOR:Marlin
;TIME:32423
;Filament used: 15.2626m
;Layer height: 0.12
;MINX:40.411
;MINY:58.975
;MINZ:0.2
;MAXX:179.475
;MAXY:179.447
;MAXZ:29.96
;Generated with Cura_SteamEngine 4.12.1
M140 S60
M105
M190 S60
M104 S205
M105
M109 S205
M82 ;absolute extrusion mode
G28 ;Home
G92 E0 ;Reset Extruder
G1 Z2.0 F3000 ;Move bed down
G1 X10.1 Y20 Z0.28 F5000.0 ;Move to start position
G1 X10.1 Y200.0 Z0.28 F1500.0 E15 ;Draw the first line
G1 X10.4 Y200.0 Z0.28 F5000.0 ;Move to side a little
G1 X10.4 Y20 Z0.28 F1500.0 E30 ;Draw the second line
G92 E0 ;Reset Extruder
G1 Z2.0 F3000 ;Move Bed up
G92 E0
G92 E0
G1 F3000 E-8
;LAYER_COUNT:249
;LAYER:0
M107
G0 F6000 X54.226 Y62.41 Z0.2
;TYPE:SKIRT
G1 F3000 E0
G1 F1200 X54.711 Y62.022 E0.01859
G1 X55.33 Y61.555 E0.0418
G1 X55.61 Y61.35 E0.05219
G1 X56.1 Y61.004 E0.07015
G1 X56.889 Y60.497 E0.09822
G1 X57.717 Y60.058 E0.12627
G1 X58.581 Y59.691 E0.15437
G1 X59.472 Y59.399 E0.18244
G1 X60.385 Y59.185 E0.21051
G1 X61.313 Y59.048 E0.23859
G1 X62.253 Y58.992 E0.26678
G1 X63.303 Y58.975 E0.29821
G1 X118.906 Y58.976 E1.96264
G1 X119.604 Y58.986 E1.98354
G1 X120.795 Y59.068 E2.01927
G1 X121.089 Y59.104 E2.02814
G1 X123.692 Y59.4 E2.10656
G1 X126.203 Y59.613 E2.182
G1 X128.723 Y59.754 E2.25755
G1 X131.248 Y59.825 E2.33316
G1 X133.771 Y59.825 E2.40868
G1 X136.267 Y59.753 E2.48343
G1 X138.769 Y59.612 E2.55845
G1 X141.257 Y59.399 E2.63319
G1 X143.591 Y59.126 E2.70354
G1 X144.281 Y59.053 E2.72431
G1 X145.248 Y58.993 E2.75331
G1 X146.347 Y58.975 E2.78621
G1 X147.531 Y58.976 E2.82165
G1 X148.235 Y58.986 E2.84273
G1 X149.172 Y59.039 E2.87082
G1 X150.1 Y59.172 E2.89888
G1 X151.014 Y59.384 E2.92697
G1 X151.862 Y59.656 E2.95363
G1 X152.628 Y59.938 E2.97806
G1 X153.867 Y60.416 E3.01781
G1 X156.256 Y61.261 E3.09367
G1 X158.628 Y62.025 E3.16826
G1 X161.02 Y62.721 E3.24284
G1 X163.504 Y63.369 E3.31968
G1 X165.975 Y63.94 E3.3956
G1 X168.4 Y64.426 E3.46963
G1 X169.711 Y64.652 E3.50945
G1 X170.483 Y64.796 E3.53296
G1 X171.397 Y65.007 E3.56104
G1 X172.289 Y65.295 E3.5891
G1 X173.154 Y65.658 E3.61718
G1 X173.985 Y66.094 E3.64527
G1 X174.775 Y66.598 E3.67332
G1 X175.52 Y67.168 E3.7014
G1 X176.213 Y67.8 E3.72948
G1 X176.85 Y68.488 E3.75754
G1 X177.426 Y69.228 E3.78561
G1 X177.937 Y70.015 E3.8137
G1 X178.379 Y70.842 E3.84177
G1 X178.749 Y71.704 E3.86985
G1 X179.045 Y72.594 E3.89793
G1 X179.263 Y73.506 E3.926
G1 X179.403 Y74.433 E3.95406
G1 X179.462 Y75.3 E3.98007
G1 X179.471 Y75.62 E3.98966
G1 X179.475 Y75.929 E3.99891
G1 X179.474 Y162.029 E6.57623
G1 X179.463 Y162.758 E6.59806
G1 X179.409 Y163.694 E6.62612
G1 X179.275 Y164.623 E6.65422
G1 X179.063 Y165.536 E6.68228
G1 X178.773 Y166.428 E6.71035
G1 X178.409 Y167.292 E6.73842
G1 X177.973 Y168.123 E6.76651
G1 X177.467 Y168.912 E6.79457
G1 X176.896 Y169.656 E6.82264
G1 X176.263 Y170.349 E6.85074
G1 X175.574 Y170.985 E6.87881
G1 X174.833 Y171.56 E6.90688
G1 X174.046 Y172.07 E6.93495
G1 X173.219 Y172.511 E6.96301
G1 X172.356 Y172.88 E6.9911
G1 X171.466 Y173.174 E7.01916
G1 X170.94 Y173.31 E7.03542
G1 X169.58 Y173.623 E7.0772
G1 X169.431 Y173.655 E7.08176
G1 X167.032 Y174.246 E7.15572
G1 X164.571 Y174.926 E7.23215
G1 X162.17 Y175.663 E7.30733
G1 X159.792 Y176.467 E7.38247
G1 X157.434 Y177.339 E7.45773
G1 X155.532 Y178.098 E7.51903
G1 X154.763 Y178.415 E7.54393
G1 X153.881 Y178.735 E7.57201
G1 X152.976 Y178.979 E7.60007
G1 X152.053 Y179.145 E7.62814
G1 X151.071 Y179.234 E7.65766
G1 X150.061 Y179.28 E7.68792
G1 X148.752 Y179.315 E7.72712
G1 X147.693 Y179.329 E7.75883
G1 X147.428 Y179.329 E7.76676
G1 X146.957 Y179.323 E7.78086
G1 X146.333 Y179.308 E7.79954
G1 X143.833 Y179.284 E7.87438
G1 X141.817 Y179.325 E7.93474
G1 X141.594 Y179.32 E7.94142
G1 X140.803 Y179.34 E7.9651
G1 X140.399 Y179.343 E7.9772
G1 X138.932 Y179.326 E8.02111
G1 X136.287 Y179.28 E8.1003
G1 X134.325 Y179.307 E8.15904
G1 X134.087 Y179.3 E8.16616
G1 X132.07 Y179.332 E8.22655
G1 X129.852 Y179.333 E8.29294
G1 X127.421 Y179.315 E8.36571
G1 X127.108 Y179.311 E8.37508
G1 X127.05 Y179.315 E8.37683
G1 X123.589 Y179.323 E8.48043
G1 X122.871 Y179.338 E8.50192
G1 X122.537 Y179.34 E8.51192
G1 X121.546 Y179.331 E8.54159
G1 X120.236 Y179.298 E8.58082
G1 X117.595 Y179.267 E8.65988
G1 X116.233 Y179.27 E8.70065
G1 X113.863 Y179.265 E8.77159
G1 X111.504 Y179.265 E8.84221
G1 X109.035 Y179.279 E8.91611
G1 X106.45 Y179.325 E8.99351
G1 X104.982 Y179.384 E9.03748
G1 X104.389 Y179.412 E9.05526
G1 X103.686 Y179.436 E9.07631
G1 X103.381 Y179.442 E9.08544
G1 X102.6 Y179.447 E9.10882
G1 X100.232 Y179.424 E9.17971
G1 X99.369 Y179.41 E9.20555
G1 X97.744 Y179.371 E9.2542
G1 X96.995 Y179.347 E9.27664
G1 X95.339 Y179.283 E9.32624
G1 X94.466 Y179.237 E9.35241
G1 X93.533 Y179.147 E9.38047
G1 X92.61 Y178.978 E9.40856
G1 X91.449 Y178.645 E9.44471
G1 X91.305 Y178.595 E9.44928
G1 X88.841 Y177.774 E9.52702
G1 X86.434 Y177.047 E9.60229
G1 X84.033 Y176.395 E9.67676
G1 X81.536 Y175.791 E9.75366
G1 X79.104 Y175.278 E9.82806
G1 X76.604 Y174.822 E9.90413
G1 X74.152 Y174.447 E9.97839
G1 X71.647 Y174.135 E10.05395
G1 X69.115 Y173.892 E10.13009
G1 X66.633 Y173.725 E10.20456
G1 X64.084 Y173.627 E10.28091
G1 X61.847 Y173.599 E10.34788
G1 X59.009 Y173.598 E10.43284
G1 X58.31 Y173.587 E10.45376
G1 X57.374 Y173.532 E10.48183
G1 X56.445 Y173.398 E10.50993
G1 X55.532 Y173.185 E10.53799
G1 X54.64 Y172.895 E10.56607
G1 X53.776 Y172.53 E10.59414
G1 X52.946 Y172.093 E10.62222
G1 X52.157 Y171.587 E10.65028
G1 X51.413 Y171.015 E10.67837
G1 X50.721 Y170.382 E10.70644
G1 X50.085 Y169.693 E10.73451
G1 X49.511 Y168.952 E10.76257
G1 X49.001 Y168.164 E10.79067
G1 X48.561 Y167.336 E10.81874
G1 X48.118 Y166.271 E10.85326
G1 X47.955 Y165.812 E10.86784
G1 X47.057 Y163.383 E10.94536
G1 X46.125 Y161.065 E11.02015
G1 X45.103 Y158.723 E11.09664
G1 X44.037 Y156.452 E11.17174
G1 X43.136 Y154.651 E11.23202
G1 X42.758 Y153.916 E11.25676
G1 X42.365 Y153.065 E11.28482
G1 X42.133 Y152.448 E11.30455
G1 X41.853 Y151.63 E11.33043
G1 X41.754 Y151.329 E11.33992
G1 X41.542 Y150.646 E11.36132
G1 X41.303 Y149.739 E11.3894
G1 X41.141 Y148.815 E11.41748
G1 X41.05 Y147.582 E11.45449
G1 X41.03 Y146.45 E11.48838
G1 X40.945 Y143.761 E11.56891
G1 X40.795 Y141.257 E11.644
G1 X40.597 Y138.991 E11.71209
G1 X40.56 Y138.624 E11.72313
G1 X40.518 Y138.054 E11.74024
G1 X40.502 Y137.699 E11.75088
G1 X40.411 Y134.785 E11.83815
G1 X40.456 Y133.39 E11.87993
G1 X40.557 Y132.339 E11.91154
G1 X40.639 Y131.582 E11.93433
G1 X40.845 Y129.045 E12.01052
G1 X40.977 Y126.542 E12.08555
G1 X41.041 Y123.892 E12.1649
G1 X41.049 Y123.089 E12.18894
G1 X41.043 Y121.487 E12.23689
G1 X41.05 Y120.781 E12.25803
G1 X41.043 Y118.911 E12.314
G1 X41.049 Y118.317 E12.33179
G1 X41.1 Y117.381 E12.35985
G1 X41.23 Y116.452 E12.38793
G1 X41.53 Y115.228 E12.42565
G1 X41.792 Y114.372 E12.45245
G1 X41.9 Y114.037 E12.46298
G1 X42.516 Y112.236 E12.51996
G1 X42.696 Y111.733 E12.53595
G1 X43.477 Y109.339 E12.61133
G1 X44.187 Y106.927 E12.6866
G1 X44.834 Y104.481 E12.76233
G1 X45.403 Y102.049 E12.8371
G1 X45.916 Y99.551 E12.91343
G1 X46.348 Y97.077 E12.98861
G1 X46.707 Y94.62 E13.06294
G1 X47.002 Y92.115 E13.13844
G1 X47.227 Y89.586 E13.21445
G1 X47.379 Y87.069 E13.28993
G1 X47.46 Y84.572 E13.36471
G1 X47.475 Y82.868 E13.41572
G1 X47.476 Y76.109 E13.61805
G1 X47.486 Y75.438 E13.63814
G1 X47.54 Y74.502 E13.6662
G1 X47.674 Y73.573 E13.6943
G1 X47.886 Y72.66 E13.72235
G1 X48.175 Y71.768 E13.75042
G1 X48.539 Y70.903 E13.77851
G1 X49.115 Y69.84 E13.8147
G1 X49.731 Y68.838 E13.84991
G1 X51.112 Y66.521 E13.93066
G1 X51.46 Y65.904 E13.95186
G1 X51.827 Y65.273 E13.97371
G1 X52.333 Y64.483 E14.00179
G1 X52.904 Y63.739 E14.02987
G1 X53.537 Y63.046 E14.05796
G1 X54.226 Y62.41 E14.08603
G0 F6000 X54.536 Y62.672
G1 F1200 X54.952 Y62.341 E14.10195
G1 X55.571 Y61.874 E14.12516
G1 X55.841 Y61.677 E14.13516
G1 X56.331 Y61.331 E14.15312
G1 X57.105 Y60.833 E14.18067
G1 X57.92 Y60.404 E14.20824
G1 X58.769 Y60.048 E14.2358
G1 X59.645 Y59.766 E14.26334
G1 X60.543 Y59.562 E14.29091
G1 X61.455 Y59.436 E14.31847
G1 X62.26 Y59.392 E14.3426
G1 X63.303 Y59.375 E14.37383
G1 X118.9 Y59.376 E16.03807
G1 X119.598 Y59.386 E16.05897
G1 X120.746 Y59.465 E16.09342
G1 X121.094 Y59.508 E16.10391
G1 X123.649 Y59.798 E16.18088
G1 X126.181 Y60.013 E16.25695
G1 X128.69 Y60.154 E16.33217
G1 X131.237 Y60.225 E16.40845
G1 X133.748 Y60.225 E16.48361
G1 X136.299 Y60.152 E16.56
G1 X138.827 Y60.009 E16.6358
G1 X141.308 Y59.797 E16.71033
G1 X143.749 Y59.511 E16.7839
G1 X144.323 Y59.45 E16.80118
G1 X145.255 Y59.393 E16.82913
G1 X146.347 Y59.375 E16.86183
G1 X147.526 Y59.376 E16.89712
G1 X148.23 Y59.386 E16.91819
G1 X149.149 Y59.439 E16.94575
G1 X150.06 Y59.572 E16.97331
G1 X150.956 Y59.783 E17.00086
G1 X151.725 Y60.032 E17.02506
G1 X152.312 Y60.247 E17.04377
G1 X153.695 Y60.78 E17.08814
G1 X156.106 Y61.632 E17.16468
G1 X158.532 Y62.413 E17.24097
G1 X160.922 Y63.108 E17.31548
G1 X163.418 Y63.76 E17.3927
G1 X165.878 Y64.328 E17.46828
G1 X168.325 Y64.819 E17.54299
G1 X169.638 Y65.045 E17.58287
G1 X170.41 Y65.189 E17.60638
G1 X171.307 Y65.397 E17.63394
G1 X172.182 Y65.682 E17.66149
G1 X173.029 Y66.042 E17.68904
G1 X173.842 Y66.474 E17.71659
G1 X174.615 Y66.975 E17.74417
G1 X175.341 Y67.541 E17.77172
G1 X176.015 Y68.168 E17.79928
G1 X176.632 Y68.851 E17.82683
G1 X177.188 Y69.585 E17.8544
G1 X177.678 Y70.364 E17.88194
G1 X178.098 Y71.183 E17.9095
G1 X178.446 Y72.036 E17.93707
G1 X178.718 Y72.915 E17.96462
G1 X178.913 Y73.815 E17.99218
G1 X179.029 Y74.728 E18.01973
G1 X179.062 Y75.311 E18.03721
G1 X179.071 Y75.631 E18.04679
G1 X179.075 Y75.929 E18.05571
G1 X179.074 Y162.023 E20.63286
G1 X179.063 Y162.752 E20.65469
G1 X179.009 Y163.671 E20.68224
G1 X178.876 Y164.582 E20.7098
G1 X178.664 Y165.478 E20.73736
G1 X178.375 Y166.352 E20.76492
G1 X178.011 Y167.198 E20.79249
G1 X177.575 Y168.009 E20.82005
G1 X177.071 Y168.779 E20.8476
G1 X176.502 Y169.503 E20.87516
G1 X175.872 Y170.174 E20.90272
G1 X175.186 Y170.788 E20.93027
G1 X174.449 Y171.34 E20.95784
G1 X173.668 Y171.827 E20.98539
G1 X172.847 Y172.244 E21.01295
G1 X171.993 Y172.587 E21.0405
G1 X170.85 Y172.92 E21.07614
G1 X169.496 Y173.232 E21.11773
G1 X169.357 Y173.262 E21.12199
G1 X166.893 Y173.868 E21.19794
G1 X164.485 Y174.534 E21.27273
G1 X162.039 Y175.284 E21.34932
G1 X159.662 Y176.088 E21.42443
G1 X157.274 Y176.971 E21.50064
G1 X155.379 Y177.728 E21.56173
G1 X154.61 Y178.045 E21.58662
G1 X153.745 Y178.359 E21.61417
G1 X152.855 Y178.596 E21.64174
G1 X151.949 Y178.755 E21.66927
G1 X151.053 Y178.834 E21.6962
G1 X149.833 Y178.888 E21.73275
G1 X148.742 Y178.916 E21.76542
G1 X147.688 Y178.929 E21.79698
G1 X147.433 Y178.929 E21.80461
G1 X146.967 Y178.923 E21.81856
G1 X146.414 Y178.909 E21.83512
G1 X143.795 Y178.884 E21.91352
G1 X141.808 Y178.925 E21.97301
G1 X141.607 Y178.92 E21.97903
G1 X140.793 Y178.941 E22.00341
G1 X140.404 Y178.943 E22.01505
G1 X138.939 Y178.926 E22.05891
G1 X136.288 Y178.88 E22.13827
G1 X134.32 Y178.907 E22.19719
G1 X134.084 Y178.9 E22.20426
G1 X132.063 Y178.932 E22.26476
G1 X129.854 Y178.933 E22.33089
G1 X127.121 Y178.912 E22.4127
G1 X127.049 Y178.915 E22.41486
G1 X123.58 Y178.923 E22.5187
G1 X122.862 Y178.938 E22.54019
G1 X122.541 Y178.94 E22.5498
G1 X121.378 Y178.928 E22.58462
G1 X120.176 Y178.898 E22.62061
G1 X117.599 Y178.867 E22.69776
G1 X116.234 Y178.87 E22.73862
G1 X113.864 Y178.865 E22.80956
G1 X111.501 Y178.865 E22.8803
G1 X109.026 Y178.879 E22.95438
G1 X106.427 Y178.925 E23.03219
G1 X104.945 Y178.985 E23.07659
G1 X104.376 Y179.012 E23.09364
G1 X103.673 Y179.036 E23.1147
G1 X103.379 Y179.042 E23.1235
G1 X102.598 Y179.047 E23.14688
G1 X100.239 Y179.025 E23.2175
G1 X99.379 Y179.01 E23.24325
G1 X97.756 Y178.971 E23.29184
G1 X97.011 Y178.947 E23.31416
G1 X95.196 Y178.876 E23.36853
G1 X94.488 Y178.838 E23.38975
G1 X93.572 Y178.749 E23.4173
G1 X92.666 Y178.58 E23.44489
G1 X91.58 Y178.267 E23.47872
G1 X91.412 Y178.209 E23.48404
G1 X88.968 Y177.394 E23.56116
G1 X86.558 Y176.667 E23.63651
G1 X84.118 Y176.004 E23.7122
G1 X81.608 Y175.397 E23.7895
G1 X79.187 Y174.886 E23.86357
G1 X76.705 Y174.433 E23.93909
G1 X74.186 Y174.048 E24.01537
G1 X71.699 Y173.739 E24.09039
G1 X69.147 Y173.494 E24.16713
G1 X66.641 Y173.325 E24.24232
G1 X64.104 Y173.227 E24.31832
G1 X61.852 Y173.199 E24.38573
G1 X59.015 Y173.198 E24.47066
G1 X58.316 Y173.187 E24.49158
G1 X57.397 Y173.132 E24.51914
G1 X56.486 Y172.998 E24.54671
G1 X55.591 Y172.786 E24.57424
G1 X54.717 Y172.496 E24.6018
G1 X53.871 Y172.132 E24.62937
G1 X53.06 Y171.696 E24.65694
G1 X52.29 Y171.191 E24.6845
G1 X51.567 Y170.621 E24.71206
G1 X50.896 Y169.991 E24.73961
G1 X50.283 Y169.305 E24.76715
G1 X49.731 Y168.568 E24.79471
G1 X49.245 Y167.786 E24.82227
G1 X48.829 Y166.964 E24.84985
G1 X48.495 Y166.137 E24.87655
G1 X48.336 Y165.689 E24.89078
G1 X47.432 Y163.244 E24.96881
G1 X46.486 Y160.893 E25.04467
G1 X45.474 Y158.572 E25.12046
G1 X44.391 Y156.266 E25.19673
G1 X43.547 Y154.577 E25.25324
G1 X43.113 Y153.733 E25.28165
G1 X42.728 Y152.897 E25.3092
G1 X42.511 Y152.319 E25.32769
G1 X42.231 Y151.501 E25.35357
G1 X42.136 Y151.21 E25.36273
G1 X41.924 Y150.527 E25.38414
G1 X41.69 Y149.637 E25.41168
G1 X41.534 Y148.73 E25.43923
G1 X41.45 Y147.575 E25.4739
G1 X41.43 Y146.438 E25.50794
G1 X41.346 Y143.759 E25.58817
G1 X41.194 Y141.234 E25.66389
G1 X40.99 Y138.9 E25.73402
G1 X40.958 Y138.584 E25.74353
G1 X40.917 Y138.034 E25.76004
G1 X40.902 Y137.687 E25.77044
G1 X40.811 Y134.773 E25.85771
G1 X40.855 Y133.428 E25.89799
G1 X40.969 Y132.244 E25.9336
G1 X41.041 Y131.582 E25.95353
G1 X41.246 Y129.065 E26.02912
G1 X41.376 Y126.573 E26.10382
G1 X41.441 Y123.901 E26.18383
G1 X41.449 Y123.09 E26.20811
G1 X41.444 Y121.342 E26.26043
G1 X41.45 Y120.78 E26.27726
G1 X41.443 Y118.91 E26.33323
G1 X41.449 Y118.322 E26.35084
G1 X41.5 Y117.402 E26.37842
G1 X41.63 Y116.491 E26.40596
G1 X41.912 Y115.345 E26.44129
G1 X42.174 Y114.489 E26.46809
G1 X42.279 Y114.166 E26.47826
G1 X42.893 Y112.371 E26.53504
G1 X43.066 Y111.887 E26.55043
G1 X43.865 Y109.439 E26.62751
G1 X44.572 Y107.037 E26.70246
G1 X45.216 Y104.602 E26.77786
G1 X45.798 Y102.115 E26.85432
G1 X46.308 Y99.629 E26.93028
G1 X46.739 Y97.167 E27.0051
G1 X47.105 Y94.657 E27.08103
G1 X47.403 Y92.122 E27.15744
G1 X47.624 Y89.648 E27.23179
G1 X47.778 Y87.105 E27.30805
G1 X47.86 Y84.545 E27.38472
G1 X47.875 Y82.872 E27.4348
G1 X47.876 Y76.115 E27.63707
G1 X47.886 Y75.444 E27.65716
G1 X47.94 Y74.525 E27.68471
G1 X48.073 Y73.614 E27.71227
G1 X48.285 Y72.718 E27.73983
G1 X48.574 Y71.844 E27.76739
G1 X48.937 Y70.998 E27.79495
G1 X49.455 Y70.05 E27.82728
G1 X50.105 Y68.994 E27.8644
G1 X51.455 Y66.728 E27.94336
G1 X51.806 Y66.105 E27.96476
G1 X52.173 Y65.474 E27.98661
G1 X52.67 Y64.699 E28.01417
G1 X53.232 Y63.97 E28.04173
G1 X53.856 Y63.292 E28.06931
G1 X54.536 Y62.672 E28.09686
G0 F6000 X55.193 Y62.66
G1 F1200 X55.812 Y62.193 E28.12007
G1 X56.071 Y62.004 E28.12966
G1 X56.561 Y61.658 E28.14762
G1 X57.322 Y61.17 E28.17468
G1 X58.122 Y60.752 E28.2017
G1 X58.956 Y60.405 E28.22874
G1 X59.817 Y60.134 E28.25576
G1 X60.699 Y59.94 E28.28279
G1 X61.595 Y59.825 E28.30983
G1 X62.267 Y59.792 E28.32997
G1 X63.303 Y59.775 E28.36099
G1 X118.894 Y59.776 E30.02506
G1 X119.592 Y59.786 E30.04595
G1 X120.697 Y59.862 E30.07911
G1 X121 Y59.899 E30.08825
G1 X123.603 Y60.195 E30.16667
G1 X126.163 Y60.412 E30.24357
G1 X128.691 Y60.554 E30.31937
G1 X131.226 Y60.625 E30.39528
G1 X133.759 Y60.625 E30.4711
G1 X136.299 Y60.552 E30.54717
G1 X138.847 Y60.408 E30.62356
G1 X141.354 Y60.193 E30.69888
G1 X143.791 Y59.909 E30.77232
G1 X144.365 Y59.848 E30.7896
G1 X145.262 Y59.793 E30.8165
G1 X146.347 Y59.775 E30.84899
G1 X147.52 Y59.776 E30.8841
G1 X148.224 Y59.786 E30.90518
G1 X149.125 Y59.839 E30.93219
G1 X150.019 Y59.971 E30.95924
G1 X150.897 Y60.182 E30.98627
G1 X151.587 Y60.407 E31.008
G1 X152.174 Y60.622 E31.02671
G1 X153.566 Y61.158 E31.07136
G1 X155.987 Y62.014 E31.14823
G1 X158.402 Y62.792 E31.22418
G1 X160.847 Y63.503 E31.3004
G1 X163.299 Y64.143 E31.37626
G1 X165.775 Y64.715 E31.45233
G1 X168.251 Y65.211 E31.52792
G1 X169.564 Y65.438 E31.5678
G1 X170.336 Y65.582 E31.59131
G1 X171.216 Y65.787 E31.61836
G1 X172.074 Y66.068 E31.64538
G1 X172.904 Y66.425 E31.67243
G1 X173.699 Y66.853 E31.69946
